X: 5
T: Bunker Hill
R: reel
M: 4/4
L: 1/8
K: Dmix
|:cA|GEcE D2DE|(3FGA (3ABc ~c2Bc| ABAG EF~G2| ABcA (3ddd :||
cA|Gc~c2 ec~c2 | GccB cBAG |(3Bcd ed fd gd| Ad{e}dB cBAG |
(3EFG AB cA (3ddd | cA (3ddd c2Bc| dBcA BGAF | GBcA (3ddd ||
ge|fd (3Bcd ad (3Bcd | fadf a2gf | ge (3Bce ge ~e2 | gbeg b2ag |
fAdf eGce |dAFA ~c2Bc | dBcA BGAF | GBcA (3ddd ||


Tune 207	Setting 29203

